public/content-write.svg

<svg width="70" height="69" viewBox="0 0 70 69" fill="none" xmlns="http://www.w3.org/2000/svg">
<rect width="70" height="68.6349" rx="14.9206" fill="#292732"/>
<path d="M57.8796 43.1678C57.4893 41.7756 56.9272 40.4375 56.2064 39.1841C55.1179 37.3612 53.659 35.7869 51.924 34.5631C52.2088 33.9526 52.4614 33.3276 52.6809 32.6908C53.1508 31.3771 53.3342 29.9781 53.2187 28.5876C53.1509 27.9399 52.9362 27.3163 52.5911 26.764C52.2459 26.2118 51.7794 25.7455 51.2269 25.4007C50.6149 25.0132 49.8915 24.8401 49.1704 24.9086C48.4492 24.9771 47.7713 25.2833 47.2433 25.7792C46.1135 26.7734 45.1693 27.9603 44.4547 29.2848C43.8039 30.5796 43.2253 31.9095 42.7218 33.2684C41.5584 33.4163 40.4313 33.774 39.3955 34.3241C38.8417 34.6177 38.3265 34.979 37.8618 35.3997C37.3979 35.8467 36.9899 36.3483 36.6468 36.8935L36.0891 38.1284C35.7505 39.6024 36.2484 40.3792 37.1049 40.6979C37.8807 40.9561 38.7193 40.9561 39.4951 40.6979C39.4951 40.6979 37.2244 45.3587 37.2045 45.5579C36.9157 46.448 36.7025 47.3608 36.5671 48.2867C36.4805 48.9478 36.4805 49.6174 36.5671 50.2785C36.6291 50.6574 36.7224 51.0305 36.846 51.394C36.9618 51.6753 37.1641 51.9124 37.4236 52.0712C37.8166 52.2937 38.2796 52.3578 38.7183 52.2504C39.2876 52.0976 39.8266 51.8484 40.3117 51.5135L41.467 50.418L42.5625 49.0237C42.7712 48.9799 42.9725 48.9061 43.16 48.8046C43.5753 48.5392 43.9623 48.2322 44.3153 47.8884C44.834 47.3687 45.2948 46.7944 45.6896 46.1754C46.0209 45.6253 46.3137 45.0529 46.566 44.4624C46.6907 44.5294 46.8251 44.5765 46.9644 44.6019C47.3994 44.7201 47.8481 44.7804 48.2989 44.7811H49.0957C49.0063 45.0878 48.9397 45.4007 48.8965 45.7173C48.8569 46.0347 48.8569 46.3559 48.8965 46.6734C48.959 46.9872 49.0524 47.2941 49.1753 47.5896C49.4993 48.2956 49.9918 48.9112 50.6094 49.3822C50.6671 49.4431 50.7366 49.4916 50.8137 49.5247C50.8907 49.5578 50.9737 49.5749 51.0576 49.5749C51.1415 49.5749 51.2245 49.5578 51.3015 49.5247C51.3786 49.4916 51.4481 49.4431 51.5058 49.3822C51.6237 49.2629 51.6899 49.1019 51.6899 48.9341C51.6899 48.7663 51.6237 48.6052 51.5058 48.4859C51.3606 48.2212 51.247 47.9405 51.1671 47.6493C51.1671 47.3506 51.1671 47.0518 51.0476 46.7331C50.9281 46.4144 51.0476 46.1356 50.9082 45.8169C50.6294 44.3828 50.6094 44.0242 50.5298 43.825C50.5533 43.6828 50.5208 43.5369 50.4391 43.418C50.3574 43.2992 50.2328 43.2166 50.0916 43.1877C49.9751 43.1612 49.8532 43.1743 49.745 43.2248C49.6369 43.2753 49.5485 43.3603 49.494 43.4665C49.1956 43.4864 48.8961 43.4864 48.5977 43.4665C48.1835 43.408 47.7806 43.2871 47.4026 43.108C46.5898 42.6444 45.9317 41.9516 45.5104 41.1162C45.2315 40.5983 45.112 40.0207 45.7892 39.6422L46.4665 39.3235C47.0276 39.174 47.6182 39.174 48.1794 39.3235C48.8099 39.4985 49.4132 39.7599 49.9721 40.1003C50.0407 40.1482 50.1184 40.1815 50.2003 40.1984C50.2822 40.2153 50.3667 40.2154 50.4487 40.1986C50.5306 40.1818 50.6083 40.1486 50.6771 40.1009C50.7458 40.0532 50.8041 39.992 50.8485 39.9211C50.9416 39.7831 50.9771 39.6142 50.9473 39.4504C50.9175 39.2867 50.8249 39.141 50.6891 39.0447C50.3148 38.7543 49.9223 38.4882 49.5139 38.248C49.6033 38.2302 49.6882 38.1946 49.7635 38.1433C49.8388 38.0919 49.903 38.0259 49.9521 37.9492C50.3505 37.2454 50.7489 36.5084 51.1472 35.7383C52.367 37.0564 53.387 38.5462 54.1748 40.1601C54.7722 41.356 55.2976 42.5865 55.7483 43.845C56.4594 45.8009 57.058 47.796 57.541 49.8204C57.5748 49.9884 57.6728 50.1364 57.8142 50.2332C57.9555 50.3299 58.1291 50.3676 58.2979 50.3383C58.3805 50.3217 58.4589 50.2889 58.5288 50.2418C58.5986 50.1946 58.6584 50.1341 58.7047 50.0637C58.751 49.9933 58.7829 49.9145 58.7986 49.8317C58.8142 49.7489 58.8133 49.6638 58.7958 49.5814C58.6608 47.4226 58.3544 45.278 57.8796 43.1678ZM37.9614 39.1841C37.8836 39.1564 37.8148 39.1083 37.7622 39.0447L38.3598 37.989C38.7638 37.4077 39.2315 36.8732 39.754 36.3956C40.1004 36.056 40.4662 35.7367 40.8495 35.4395C41.2154 35.1767 41.6018 34.9436 42.0048 34.7424C41.9666 34.8456 41.92 34.9456 41.8654 35.0411L40.0926 39.0248C39.4151 39.1514 38.7296 39.2312 38.0411 39.2638L37.9614 39.1841ZM38.6386 50.0794C38.6386 49.92 38.2402 48.4262 38.2004 47.7888C38.1606 47.1514 38.2004 46.7331 38.2004 46.2152C38.7866 46.8078 39.4121 47.3602 40.0727 47.8684C40.3592 48.0794 40.6586 48.2723 40.969 48.4461C40.969 48.4461 38.9374 50.0794 38.7183 50.159L38.6386 50.0794ZM49.0359 37.272C48.9817 37.3658 48.9532 37.4723 48.9532 37.5807C48.9532 37.6891 48.9817 37.7956 49.0359 37.8894C48.8328 37.7764 48.6194 37.683 48.3985 37.6106C47.7564 37.4022 47.0757 37.341 46.4067 37.4313L45.1519 37.8098C44.815 37.9293 44.5056 38.1154 44.242 38.3568C43.9784 38.5983 43.766 38.8902 43.6173 39.2153C43.4687 39.5404 43.3869 39.8921 43.3768 40.2494C43.3667 40.6067 43.4284 40.9624 43.5584 41.2954C43.7811 41.9588 44.1485 42.5643 44.634 43.0682C44.8669 43.3026 45.1202 43.5159 45.3909 43.7055C45.1519 44.0442 44.9527 44.4027 44.6937 44.7214C44.2271 45.3211 43.6771 45.851 43.0604 46.2949C42.9011 46.4144 42.2637 46.8327 42.3633 46.8327C41.7807 46.7171 41.2128 46.5367 40.6703 46.2949C40.013 45.9563 39.3955 45.5778 38.6784 45.2193C39.1166 44.3429 39.515 43.5661 39.8735 42.8889C41.0686 40.6381 41.9849 39.1443 43.5982 36.037C44.4746 34.2643 45.2514 32.2526 46.2474 30.4201C46.8174 29.2769 47.5786 28.2395 48.4981 27.3527C48.7006 27.1418 48.9694 27.0069 49.2595 26.9707C49.5496 26.9344 49.8434 26.999 50.0916 27.1535C50.4068 27.3181 50.6802 27.5527 50.8908 27.8392C51.1014 28.1258 51.2436 28.4567 51.3066 28.8067C51.4576 29.9543 51.3695 31.1208 51.0476 32.2327C51.0277 32.6908 49.4143 36.4553 49.0359 37.272Z" fill="#46C1E3"/>
<path d="M43.0603 51.8322C40.6032 53.231 38.0311 54.4171 35.3719 55.3776C33.715 56.0095 31.9151 56.1681 30.1732 55.8357C29.3967 55.5671 28.7081 55.092 28.1814 54.4614C27.2901 53.4059 26.5155 52.2573 25.8709 51.0354C24.7953 49.203 23.8791 47.3506 22.9429 45.4583C21.5686 42.5901 20.3536 39.6821 19.0788 36.7342C18.4016 35.2403 17.8439 33.7265 17.3061 32.2128C16.4297 29.9222 15.6927 27.5718 14.896 25.2215C14.7366 24.7633 13.8204 23.2296 13.3822 22.3333C14.0539 22.2949 14.7206 22.1949 15.374 22.0346C18.7629 21.1609 22.0899 20.063 25.3331 18.7481C28.9956 17.374 32.5508 15.7295 35.9694 13.8283C36.2934 13.6231 36.5882 13.3752 36.8458 13.0913C37.3745 13.8629 37.8408 14.6755 38.2401 15.5213C39.2559 17.792 40.4112 21.4968 41.5465 24.4447C41.8851 25.2613 42.2237 26.0182 42.5424 26.6556C42.5786 26.7318 42.6296 26.8001 42.6924 26.8564C42.7552 26.9128 42.8286 26.9561 42.9082 26.9839C42.9879 27.0117 43.0723 27.0234 43.1565 27.0183C43.2408 27.0133 43.3231 26.9915 43.3989 26.9543C43.5492 26.8773 43.6641 26.7454 43.7197 26.5859C43.7753 26.4264 43.7674 26.2517 43.6977 26.0979C43.3517 25.3988 43.0457 24.6806 42.7814 23.9467C41.6859 21.0187 40.6303 17.2144 39.6344 14.9038C38.9977 13.5706 38.1351 12.3577 37.0848 11.3186C36.9395 11.2347 36.7746 11.1905 36.6068 11.1905C36.439 11.1905 36.2741 11.2347 36.1288 11.3186C35.6109 11.6572 35.9694 11.8962 34.8938 12.5336C30.7904 14.5964 26.5434 16.3604 22.186 17.8119C19.6551 18.7356 17.067 19.4941 14.4379 20.0826C12.2867 20.4013 12.705 19.8436 11.8485 20.2618C11.6433 20.3702 11.4729 20.5342 11.3566 20.735C11.2404 20.9358 11.183 21.1653 11.1912 21.3972C11.6071 22.9531 12.1672 24.4668 12.8643 25.9186C13.661 28.3685 14.398 30.6392 15.1748 32.9497C15.7525 34.5033 16.35 36.057 17.0471 37.6106C18.4016 40.5386 19.6763 43.4466 21.0308 46.2949C22.0068 48.2867 23.0226 50.0794 24.2177 51.9318C24.9555 53.241 25.8374 54.4636 26.8469 55.5768C27.5951 56.3965 28.563 56.9841 29.6354 57.2698C31.6454 57.6368 33.7184 57.4226 35.6109 56.6524C38.3004 55.5777 40.904 54.2992 43.3989 52.8281C43.5282 52.7567 43.6239 52.6368 43.665 52.4949C43.7061 52.353 43.6892 52.2006 43.618 52.0712C43.558 51.9818 43.4735 51.9116 43.3745 51.8692C43.2755 51.8268 43.1664 51.8139 43.0603 51.8322Z" fill="#46C1E3"/>
<path d="M26.4089 25.9584C27.4493 25.7856 28.5014 25.6924 29.556 25.6795C30.7487 25.657 31.9362 25.5169 33.1014 25.2613C34.742 24.9182 36.2131 24.0172 37.2643 22.7117C37.3823 22.5924 37.4485 22.4314 37.4485 22.2636C37.4485 22.0958 37.3823 21.9347 37.2643 21.8154C37.2066 21.7545 37.1371 21.7061 37.0601 21.6729C36.983 21.6398 36.9 21.6227 36.8162 21.6227C36.7323 21.6227 36.6493 21.6398 36.5723 21.6729C36.4952 21.7061 36.4257 21.7545 36.368 21.8154C35.6542 22.5217 34.7686 23.0297 33.7986 23.2894C32.5995 23.5299 31.3738 23.6103 30.1535 23.5284C28.7769 23.5001 27.4013 23.6203 26.0504 23.8869C25.0008 24.1615 24.0136 24.6348 23.1423 25.2812C22.0094 26.1718 21.0448 27.2579 20.294 28.488C20.2476 28.6025 20.2391 28.7289 20.2698 28.8486C20.3006 28.9683 20.3689 29.075 20.4647 29.153C20.5605 29.231 20.6789 29.2763 20.8023 29.282C20.9258 29.2878 21.0478 29.2539 21.1505 29.1851C21.8659 28.3585 22.6979 27.6406 23.6204 27.0539C24.4589 26.4898 25.4107 26.1159 26.4089 25.9584Z" fill="#46C1E3"/>
<path d="M38.6783 30.3604C38.7963 30.241 38.8625 30.08 38.8625 29.9122C38.8625 29.7444 38.7963 29.5834 38.6783 29.464C38.6206 29.4032 38.5511 29.3547 38.4741 29.3215C38.397 29.2884 38.314 29.2713 38.2302 29.2713C38.1463 29.2713 38.0633 29.2884 37.9862 29.3215C37.9092 29.3547 37.8397 29.4032 37.782 29.464C36.975 30.0048 36.0672 30.3774 35.113 30.5595C33.6191 30.8981 32.0456 30.938 30.4521 31.1571C29.5477 31.3291 28.6657 31.6031 27.8229 31.9737C27.2549 32.2305 26.7143 32.5441 26.2095 32.9099C24.9593 33.7434 23.9113 34.8458 23.1421 36.1366C23.0645 36.262 23.0378 36.4123 23.0674 36.5567C23.0971 36.7011 23.1808 36.8287 23.3015 36.9134C23.3635 36.9576 23.4339 36.9886 23.5083 37.0045C23.5827 37.0204 23.6596 37.0209 23.7343 37.006C23.8089 36.991 23.8797 36.961 23.9423 36.9177C24.0049 36.8744 24.0579 36.8187 24.0982 36.7541C24.7629 35.9538 25.5657 35.2792 26.4685 34.7623C27.1536 34.3815 27.874 34.0679 28.6196 33.8261C29.3583 33.5534 30.1176 33.3403 30.8903 33.1887C32.4838 32.8103 34.0971 32.6111 35.6109 32.0932C36.7463 31.7433 37.7926 31.1522 38.6783 30.3604Z" fill="#46C1E3"/>
<path d="M30.9102 40.0008C30.504 40.1221 30.1105 40.2821 29.735 40.4788C29.367 40.6598 29.0198 40.8802 28.6993 41.1361C27.9647 41.7624 27.2972 42.4633 26.7074 43.2275C26.6052 43.3349 26.5481 43.4775 26.5481 43.6259C26.5481 43.7742 26.6052 43.9168 26.7074 44.0242C26.7594 44.0772 26.8213 44.1193 26.8898 44.1481C26.9582 44.1768 27.0316 44.1916 27.1058 44.1916C27.18 44.1916 27.2535 44.1768 27.3219 44.1481C27.3903 44.1193 27.4522 44.0772 27.5042 44.0242C28.3618 43.5188 29.2462 43.06 30.1533 42.6499C30.5716 42.4507 30.9699 42.2117 31.3882 41.9926C31.8065 41.7735 32.2049 41.5145 32.6431 41.3154C33.0738 41.1242 33.5203 40.971 33.9776 40.8572C34.0614 40.8497 34.1429 40.8257 34.2175 40.7866C34.292 40.7474 34.358 40.6939 34.4117 40.629C34.4654 40.5642 34.5057 40.4894 34.5303 40.4089C34.555 40.3284 34.5634 40.2439 34.5552 40.1601C34.5505 40.0752 34.5282 39.9923 34.4899 39.9164C34.4516 39.8406 34.3981 39.7734 34.3327 39.7192C34.2672 39.665 34.1913 39.6248 34.1096 39.6013C34.028 39.5778 33.9423 39.5714 33.8581 39.5825C32.8586 39.5487 31.8609 39.6903 30.9102 40.0008Z" fill="#46C1E3"/>
</svg>

<svg xmlns="http://www.w3.org/2000/svg" width="70" height="69" fill="none"><rect width="70" height="68.635" fill="#292732" rx="14.921"/><path fill="#46C1E3" d="M57.88 43.168a17.4 17.4 0 0 0-1.674-3.984 15.2 15.2 0 0 0-4.282-4.62q.427-.917.757-1.873a9.8 9.8 0 0 0 .538-4.103 4.28 4.28 0 0 0-1.992-3.187 3.27 3.27 0 0 0-3.984.378 12.7 12.7 0 0 0-2.788 3.506 39 39 0 0 0-1.733 3.983 9.7 9.7 0 0 0-3.327 1.056 7.6 7.6 0 0 0-1.533 1.076 8 8 0 0 0-1.215 1.494l-.558 1.234c-.338 1.474.16 2.251 1.016 2.57a3.8 3.8 0 0 0 2.39 0s-2.27 4.66-2.29 4.86c-.29.89-.502 1.803-.638 2.729a7.7 7.7 0 0 0 0 1.992q.093.569.279 1.115c.116.281.318.518.578.677.393.223.856.287 1.294.18a5.2 5.2 0 0 0 1.594-.737l1.155-1.096 1.096-1.394c.208-.044.41-.118.597-.22a7.3 7.3 0 0 0 1.155-.916c.519-.52.98-1.094 1.375-1.713q.496-.826.876-1.713.19.1.398.14a5.1 5.1 0 0 0 1.335.18h.797q-.135.46-.2.935-.06.479 0 .956.094.472.28.917a4.74 4.74 0 0 0 1.433 1.792.616.616 0 0 0 .897 0 .64.64 0 0 0 0-.896 4 4 0 0 1-.339-.837c0-.298 0-.597-.12-.916-.119-.319 0-.597-.139-.916-.279-1.434-.299-1.793-.378-1.992a.56.56 0 0 0-.438-.637.54.54 0 0 0-.598.279q-.448.03-.896 0a4.1 4.1 0 0 1-1.195-.359 4.76 4.76 0 0 1-1.893-1.992c-.279-.518-.398-1.095.28-1.474l.677-.319a3.3 3.3 0 0 1 1.712 0c.63.175 1.234.437 1.793.777a.616.616 0 0 0 .877-.179.64.64 0 0 0-.16-.876q-.562-.436-1.175-.797a.68.68 0 0 0 .438-.299q.598-1.056 1.195-2.21a18.4 18.4 0 0 1 3.028 4.421 34 34 0 0 1 1.573 3.685 55 55 0 0 1 1.793 5.975.657.657 0 0 0 .757.518.64.64 0 0 0 .498-.757 41 41 0 0 0-.916-6.413M37.96 39.184a.46.46 0 0 1-.199-.14l.598-1.055a9.5 9.5 0 0 1 1.394-1.593q.52-.511 1.096-.956a8.5 8.5 0 0 1 1.155-.698 2 2 0 0 1-.14.3l-1.772 3.983q-1.018.19-2.052.239zm.678 10.895c0-.159-.399-1.653-.439-2.29-.04-.638 0-1.056 0-1.574a18.5 18.5 0 0 0 1.873 1.653q.43.317.896.578s-2.032 1.633-2.25 1.713zm10.397-12.807a.62.62 0 0 0 0 .617 3.7 3.7 0 0 0-.638-.278 4.5 4.5 0 0 0-1.991-.18l-1.255.379a2.67 2.67 0 0 0-1.594 3.485 4.7 4.7 0 0 0 1.076 1.773q.35.353.757.638c-.24.338-.438.697-.697 1.015a8 8 0 0 1-1.634 1.574c-.159.12-.796.538-.697.538a8 8 0 0 1-1.693-.538c-.657-.339-1.275-.717-1.992-1.076q.658-1.314 1.196-2.33c1.195-2.25 2.11-3.745 3.724-6.852.877-1.773 1.653-3.784 2.65-5.617a11.2 11.2 0 0 1 2.25-3.067 1.274 1.274 0 0 1 1.594-.2 2.33 2.33 0 0 1 1.215 1.654 8.4 8.4 0 0 1-.26 3.426c-.02.458-1.633 4.222-2.011 5.039"/><path fill="#46C1E3" d="M43.06 51.832a49.6 49.6 0 0 1-7.688 3.546 9.56 9.56 0 0 1-5.199.458 4.5 4.5 0 0 1-1.992-1.375 19.2 19.2 0 0 1-2.31-3.426c-1.076-1.832-1.992-3.684-2.928-5.577-1.374-2.868-2.59-5.776-3.864-8.724-.677-1.494-1.235-3.008-1.773-4.521-.876-2.29-1.613-4.641-2.41-6.992-.16-.458-1.076-1.991-1.514-2.888a11 11 0 0 0 1.992-.298 79 79 0 0 0 9.96-3.287 79 79 0 0 0 10.635-4.92c.324-.205.62-.453.877-.737.529.772.995 1.585 1.394 2.43 1.016 2.271 2.171 5.976 3.307 8.924.338.816.677 1.573.995 2.21a.637.637 0 0 0 1.178-.07.66.66 0 0 0-.022-.487q-.52-1.05-.917-2.151c-1.095-2.928-2.15-6.733-3.147-9.043a12.8 12.8 0 0 0-2.55-3.585.96.96 0 0 0-.955 0c-.518.338-.16.577-1.235 1.215a95.5 95.5 0 0 1-12.708 5.278 62 62 0 0 1-7.748 2.27c-2.151.32-1.733-.238-2.59.18a1.24 1.24 0 0 0-.657 1.135c.416 1.556.976 3.07 1.673 4.522.797 2.45 1.534 4.72 2.31 7.03.579 1.554 1.176 3.108 1.873 4.662 1.355 2.928 2.63 5.836 3.984 8.684a54 54 0 0 0 3.187 5.637 20.2 20.2 0 0 0 2.629 3.645 5.8 5.8 0 0 0 2.788 1.693c2.01.367 4.083.153 5.976-.618a57 57 0 0 0 7.788-3.824.56.56 0 0 0 .219-.757.56.56 0 0 0-.558-.239"/><path fill="#46C1E3" d="M26.409 25.958a21 21 0 0 1 3.147-.278 18 18 0 0 0 3.545-.419 7.25 7.25 0 0 0 4.163-2.55.637.637 0 0 0 0-.896.62.62 0 0 0-.896 0 5.8 5.8 0 0 1-2.57 1.474c-1.199.24-2.424.321-3.645.24a19 19 0 0 0-4.103.358 8.5 8.5 0 0 0-2.908 1.394 12.1 12.1 0 0 0-2.848 3.207.578.578 0 0 0 .857.697 11.3 11.3 0 0 1 2.47-2.131 6.9 6.9 0 0 1 2.788-1.096M38.678 30.36a.64.64 0 0 0 0-.896.62.62 0 0 0-.896 0 7.2 7.2 0 0 1-2.669 1.096c-1.494.338-3.067.378-4.66.597a12.2 12.2 0 0 0-2.63.817 9.2 9.2 0 0 0-1.614.936 10.1 10.1 0 0 0-3.067 3.227.578.578 0 0 0 .366.867.56.56 0 0 0 .59-.25 8.7 8.7 0 0 1 2.37-1.992 12 12 0 0 1 2.152-.936 15 15 0 0 1 2.27-.637c1.594-.379 3.207-.578 4.72-1.096a8.25 8.25 0 0 0 3.068-1.733M30.91 40q-.61.183-1.175.479a5.7 5.7 0 0 0-1.036.657 14 14 0 0 0-1.992 2.091.58.58 0 0 0 0 .797.56.56 0 0 0 .797 0 28 28 0 0 1 2.65-1.374c.418-.2.816-.438 1.234-.657s.817-.479 1.255-.678q.647-.286 1.335-.458a.64.64 0 0 0 .577-.697.617.617 0 0 0-.697-.577c-1-.034-1.997.107-2.948.418"/></svg>
